X:1
T:Title
%%score { 1 | ( 2 3 ) }
L:1/8
M:6/8
K:A
V:1 treble nm="Grand Piano"
V:2 bass 
V:3 bass 
V:1
 z3 z2[Q:1/4=100] [CE] | [CA]2 [CA] [CA][B,G][CA] | [Ec]2 [Ec] [CA][B,G][CA] | B2 B GFG | [CA]6 | %5
[M:1/8] [CE] |[M:3/4] [CA]2 [CA][CA] [B,G][CA] | [Ec]2 [Ec][CA] [B,G][CA] | B2 BG FG | [CA]6 | %10
[M:1/8] A |[M:3/4] B2 BG FE | [Ec]2 [Ec] [CA]2 [CA] | d2 dc c2 |[M:5/8] B-B- B3 |[M:1/8] E | %16
[M:3/4] [CA]2 [DB] [Ec]2 [CA] | F2 FA GF | G2 GG FG |[M:5/8] [CEA]-[CEA]- [CEA]3 |] %20
V:2
 z3 z2 [A,,A,] | [A,,E,]2 [A,,E,] [A,,E,]2 [A,,E,] | [A,,A,]2 [A,,A,] [A,,E,]2 [A,,E,] | %3
 [E,G,D]2 [E,G,D] [E,B,D]2 [E,B,D] | [A,,A,]6 |[M:1/8] [A,,A,] | %6
[M:3/4] [A,,E,]2 [A,,E,] [A,,E,]2 [A,,E,] | [A,,A,]2 [A,,A,] [A,,E,]2 [A,,E,] | %8
 [E,G,D]2 [E,G,D] [E,B,D]2 [E,B,D] | [A,,A,]6 |[M:1/8] [A,C] |[M:3/4] z2 z B, z2 | %12
 [A,,A,]2 [A,,A,] [A,,E,]2 [A,,A,] | [E,B,E]2 [E,B,E][E,A,E] [E,A,E]2 | %14
[M:5/8] [E,G,E]-[E,G,E]- [E,G,E]3 |[M:1/8] [E,D] |[M:3/4] [A,,E,]2 [A,,E,] [A,,A,]2 [A,,A,] | %17
 [D,A,D]2 [D,A,D] [D,F,D]2 [D,B,D] | [E,B,D]2 [E,B,D] [E,B,D]2 [E,B,D] | %19
[M:5/8] [A,,A,]-[A,,A,]- [A,,A,]3 |] %20
V:3
 x6 | x6 | x6 | x6 | x6 |[M:1/8] x |[M:3/4] x6 | x6 | x6 | x6 |[M:1/8] x | %11
[M:3/4] [E,G,D]2 [E,G,D][E,D]- [E,A,D][E,G,D] | x6 | x6 |[M:5/8] x5 |[M:1/8] x |[M:3/4] x6 | x6 | %18
 x6 |[M:5/8] x5 |] %20

